src/img/icon-tel.svg

<svg width="20" height="20" viewBox="0 0 20 20" fill="none" xmlns="http://www.w3.org/2000/svg">
<path d="M19.88 4.84249C19.605 1.81874 18.3087 1.04624 15.6875 0.542488C13.8275 0.182488 11.915 0 9.98878 0C8.08253 0 6.16997 0.182488 4.31122 0.542488C1.68747 1.04624 0.391213 1.81749 0.118713 4.84749C0.0387134 5.75374 0 6.645 0 7.5C0 8.355 0.0387604 9.24625 0.12001 10.1562C0.39376 13.18 1.69002 13.9525 4.31252 14.4563C6.17252 14.8163 8.08247 14.9987 10.0012 14.9987L15.0012 20V14.5562C15.2287 14.5175 15.4625 14.5013 15.6875 14.4575C18.3125 13.9538 19.6075 13.1825 19.8813 10.1525C19.96 9.24626 20.0012 8.35375 20.0012 7.5C20.0012 6.64625 19.96 5.75374 19.88 4.84249ZM18.635 10.0438C18.4288 12.3138 17.7338 12.7913 15.4513 13.23C15.3025 13.2588 15.1488 13.2687 15 13.295C14.5875 13.3675 14.17 13.42 13.75 13.475V16.9825L11.6875 14.9187L10.4938 13.725C10.3275 13.7275 10.1663 13.7487 10 13.7487C9.5575 13.7487 9.12497 13.7063 8.68622 13.6863C7.27997 13.6225 5.89375 13.4888 4.5475 13.2288C2.265 12.79 1.57 12.3125 1.36375 10.0425C1.29 9.205 1.24878 8.35624 1.24878 7.49874C1.24878 6.64124 1.29 5.79249 1.36375 4.95499C1.57 2.68499 2.265 2.20751 4.5475 1.76876C6.3125 1.42751 8.13378 1.24874 9.99878 1.24874C11.8638 1.24874 13.685 1.42751 15.45 1.76876C17.7325 2.20751 18.4275 2.68499 18.6337 4.95499C18.7075 5.79249 18.7488 6.64124 18.7488 7.49874C18.7488 8.35624 18.7088 9.20625 18.635 10.0438ZM11.25 7.5C11.25 8.19 10.6912 8.75 10 8.75C9.30875 8.75 8.75 8.19 8.75 7.5C8.75 6.81 9.30875 6.25 10 6.25C10.6912 6.25 11.25 6.81 11.25 7.5ZM6.25 7.5C6.25 8.19 5.69125 8.75 5 8.75C4.30875 8.75 3.75 8.19 3.75 7.5C3.75 6.81 4.30875 6.25 5 6.25C5.69125 6.25 6.25 6.81 6.25 7.5ZM16.25 7.5C16.25 8.19 15.6912 8.75 15 8.75C14.3088 8.75 13.75 8.19 13.75 7.5C13.75 6.81 14.3088 6.25 15 6.25C15.6912 6.25 16.25 6.81 16.25 7.5Z" fill="black"/>
</svg>

<svg width="20" height="20" viewBox="0 0 20 20" fill="none" xmlns="http://www.w3.org/2000/svg"><path d="M19.88 4.842c-.275-3.023-1.571-3.796-4.192-4.3a30.023 30.023 0 00-11.377 0C1.687 1.046.391 1.817.12 4.847A30.28 30.28 0 000 7.5c0 .855.039 1.746.12 2.656.274 3.024 1.57 3.796 4.193 4.3 1.86.36 3.77.543 5.688.543l5 5.001v-5.444c.228-.038.462-.055.687-.098 2.624-.504 3.92-1.276 4.193-4.306.079-.906.12-1.798.12-2.652 0-.854-.041-1.746-.121-2.658zm-1.245 5.202c-.206 2.27-.901 2.747-3.184 3.186-.149.029-.302.039-.451.065-.412.072-.83.125-1.25.18v3.508l-2.063-2.064-1.193-1.194c-.166.002-.328.024-.494.024-.443 0-.875-.043-1.314-.063-1.406-.063-2.792-.197-4.138-.457-2.283-.439-2.978-.916-3.184-3.186a28.994 28.994 0 01-.115-2.544c0-.858.041-1.707.115-2.544.206-2.27.901-2.747 3.184-3.186a28.687 28.687 0 015.45-.52c1.866 0 3.687.179 5.452.52 2.283.439 2.977.916 3.184 3.186.073.837.115 1.686.115 2.544 0 .857-.04 1.707-.114 2.545zM11.25 7.5a1.25 1.25 0 11-2.5 0 1.25 1.25 0 012.5 0zm-5 0a1.25 1.25 0 11-2.5 0 1.25 1.25 0 012.5 0zm10 0a1.25 1.25 0 11-2.5 0 1.25 1.25 0 012.5 0z" fill="#000"/></svg>
